resources/icons/16px/horizontal-bar-chart-desc.svg

<svg xmlns="http://www.w3.org/2000/svg" viewBox="0 0 16 16">
  <path d="M15 1H1c-.55 0-1 .45-1 1s.45 1 1 1h14c.55 0 1-.45 1-1s-.45-1-1-1M8 9H1c-.55 0-1 .45-1 1s.45 1 1 1h7c.55 0 1-.45 1-1s-.45-1-1-1m-2 4H1c-.55 0-1 .45-1 1s.45 1 1 1h5c.55 0 1-.45 1-1s-.45-1-1-1m5-8H1c-.55 0-1 .45-1 1s.45 1 1 1h10c.55 0 1-.45 1-1s-.45-1-1-1"/>
</svg>

<?xml version="1.0" encoding="utf-8"?>
<!-- Generator: Adobe Illustrator 18.0.0, SVG Export Plug-In . SVG Version: 6.00 Build 0)  -->
<svg version="1.1" id="Layer_1" xmlns="http://www.w3.org/2000/svg" xmlns:xlink="http://www.w3.org/1999/xlink" x="0px" y="0px"
	 viewBox="0 0 16 16" enable-background="new 0 0 16 16" xml:space="preserve">
<g id="histogram_horizontal_descending">
	<g>
		<path fill-rule="evenodd" clip-rule="evenodd" d="M15,1H1C0.45,1,0,1.45,0,2c0,0.55,0.45,1,1,1h14c0.55,0,1-0.45,1-1
			C16,1.45,15.55,1,15,1z M8,9H1c-0.55,0-1,0.45-1,1c0,0.55,0.45,1,1,1h7c0.55,0,1-0.45,1-1C9,9.45,8.55,9,8,9z M6,13H1
			c-0.55,0-1,0.45-1,1c0,0.55,0.45,1,1,1h5c0.55,0,1-0.45,1-1C7,13.45,6.55,13,6,13z M11,5H1C0.45,5,0,5.45,0,6c0,0.55,0.45,1,1,1
			h10c0.55,0,1-0.45,1-1C12,5.45,11.55,5,11,5z"/>
	</g>
</g>
</svg>
